X: 38712
T: Stream, The
R: reel
M: 4/4
K: Eminor
E3F GE~E2|BEdE BGFE|D3E FD~D2|dDBD ADFD|
E3F GE~E2|BEdE BGFE|D2FA d3B|1 AFDF E3D:|2 ABdf e3d||
e2ge Bege|bege agfe|d3e f3g|a2~a2 bagf|
e2ge Bege|bege agfe|defg afdf|1 gfed BABd:|2 gfed BAFD||

